X: 1177
T: The Air Tune
B: ralph
B: steve tunes
M:4/4
Q: 1/4=100
K:Dmajor
V:1 
|:"D" Affe f2 de|f/g/ade f2 ed|"G" Beed fded|"Em" BA A/A/A "A" BAFG|
 "D" Affe f2 de|f/g/ade f2 ed|"G" dBBe "Bm" dBcd|1 "A" FE E/D/D "D" D3 B:|2 "A" FEED "D" Defg||
 |:"D" a2 ga fgef|edcd FADA|"G" Beed fded|"Em" BA A/A/A "A" BAFG|
 "D" a2 ga fgef|edcd FADA|"G" GBBA "Bm" BddB|1 "A" Affe "D" defg:|2 "A" Affe "D" d3 z||
% abcbook-tune_id 63453c5df19725b4cbaaab58


% abcbook-boost 0
% abcbook-tablature 
% abcbook-transpose 
% abcbook-lastupdated 1665989367061
% abcbook-soundfonts 
% abcbook-repeats 3


